Catalina-light/actions/22/view-multiple-objects.svg

<svg xmlns="http://www.w3.org/2000/svg" viewBox="0 0 22 22">
  <defs id="defs3051">
    <style type="text/css" id="current-color-scheme">
      .ColorScheme-Text {
        color:#4d4d4d
      }
      </style>
  </defs>
 <path 
     style="fill:currentColor;fill-opacity:1;stroke:none"      
	 class="ColorScheme-Text"
        d="M 2.8925781 3 C 2.6562048 3 2.4667969 3.1894079 2.4667969 3.4257812 L 2.4667969 10.039062 C 2.4667969 10.275436 2.6562048 10.466797 2.8925781 10.466797 L 12.707031 10.466797 C 12.943405 10.466797 13.132812 10.275436 13.132812 10.039062 L 13.132812 3.4257812 C 13.132812 3.1894079 12.943405 3 12.707031 3 L 2.8925781 3 z M 14.626953 3 C 14.39058 3 14.199219 3.1894079 14.199219 3.4257812 L 14.199219 10.039062 C 14.199219 10.275436 14.39058 10.466797 14.626953 10.466797 L 19.107422 10.466797 C 19.343795 10.466797 19.533203 10.275436 19.533203 10.039062 L 19.533203 3.4257812 C 19.533203 3.1894079 19.343795 3 19.107422 3 L 14.626953 3 z M 3 11.533203 C 2.7045333 11.533203 2.4667969 11.77094 2.4667969 12.066406 L 2.4667969 18.466797 C 2.4667969 18.762264 2.7045333 19 3 19 L 19 19 C 19.295467 19 19.533203 18.762264 19.533203 18.466797 L 19.533203 12.066406 C 19.533203 11.77094 19.295467 11.533203 19 11.533203 L 3 11.533203 z "
     />
</svg>

<svg viewBox="0 0 22 22" xmlns="http://www.w3.org/2000/svg">
<defs>
<style id="current-color-scheme" type="text/css">.ColorScheme-Text {
        color:#363636
      }</style>
</defs>
<path class="ColorScheme-Text" d="m2.8926 3c-0.23637 0-0.42578 0.18941-0.42578 0.42578v6.6133c0 0.23637 0.18941 0.42774 0.42578 0.42774h9.8145c0.23637 0 0.42578-0.19136 0.42578-0.42774v-6.6133c0-0.23637-0.18941-0.42578-0.42578-0.42578h-9.8145zm11.734 0c-0.23637 0-0.42773 0.18941-0.42773 0.42578v6.6133c0 0.23637 0.19136 0.42774 0.42773 0.42774h4.4805c0.23637 0 0.42578-0.19136 0.42578-0.42774v-6.6133c0-0.23637-0.18941-0.42578-0.42578-0.42578h-4.4805zm-11.627 8.5332c-0.29547 0-0.5332 0.23774-0.5332 0.5332v6.4004c0 0.29547 0.23774 0.5332 0.5332 0.5332h16c0.29547 0 0.5332-0.23774 0.5332-0.5332v-6.4004c0-0.29547-0.23774-0.5332-0.5332-0.5332h-16z" fill="#363636"/>
</svg>
